!!!OTL: Spinn, Spinn (2-94) S. 275
!!!id: P0965
**kern
*clefG2
*k[f#]
*G:
{4d
=1
4g
8g
8g
8f#
8e
=2
4d
4d}
=3
{8d
8d
=4
4e
4e
8f#
8a
=5
2g}
=6
{4d
=7
4g
8g
8g
8a
8a
=8
4b
4b}
=9
{4g
=10
4a
4a
4f#
=11
2g}
=12
{4d
=13
4g
4g
4a
=14
4b
4b
4b
=15
4b
4a
8b
8a
=16
4g
4g}
=17
{4d
=18
4g
4g
4a
=19
4b
4dd
4b
=20
4a
4b
4a
=21
2g}
==
*-
!!!minrhy: 8
!!!meters: 3/4 ]  ZZ[6
!!!cut: Spinn, Spinn (2-94) S. 275
!!!reg: Lothringen
!!!trd: PINCK, Louis: Verklingende Weisen, Bd 2, Metz 1928
!!!rhy1: X_  X_XXXX  X_X_
!!!rhy2: XX  X_X_XX  X__
!!!key: P0965  08  G 3/4 ]  ZZ[6
!!!mod: SECHSTONSKALA DUR ?]  AMBITUS[8
!!!kad: -513111
!!!akz: 1-5_-61_13_21_1331_1321_
!!!fot: 'a__b__bs"c__bs"bs"
!!!for: 'a__b__a__c__cw_cw_
!!!fok: '^__/__/__-__^a_^a_
!! PHRAS[AUFTAKTIG]
!!!fkt: ???, Aussicht auf einen Mann
!! LOTH VKL
!! PR[28] 2K[0] 2G[16] 3K[6] 3G[3] 4A[0] 4Ü[0] 5A[0] 6K[0] 6G[0]
!! 7K[0] 7G[0] 8A[0] MEHR[0] SI[25] ABS[32] SR[16] SP[9]
!! ST[7] 2k[9] 2g[38] 3k[0] 3g[0] 4d[0] 4ü[0] 5d[0] 6k[0] 6g[0]
!! 7k[0] 7g[0] 8d[0] mehr[0] si[47] dm[-22] sr[47] sp[0]
!! 1F[52] 2F[39] 3F[0] 4F[0] LF[0] 2P[9] 3P[0] 4P[0] TRI[0] DF[3] AB[33]
!! TF[0] U3K[0] U3[0] U4[0] U4Ü[0] U5[0] U6K[0] U6[0] U7K[0] U7[0]
!! N1[12] N2K[0] N2[18] N3K[0] N3[27] N4[9] N4Ü[0] N5[30] N6K[0] N6[3]
!!!n7k: 0] N7[0] O1[0] O2K[0] O2[0] O3K[0] O3[0] HÖ[0
